X:17
%
T: The Deil among the Tailors
C:
O:Scotland
B:Keith Norman MacDonald : "The Skye collection of the best reels & strathspeys extant" : 1887
Z:Ralph Palmer
R:Reel
M:C
L:1/8
K:A
a2 eg {/g}a2 eg | {/g}a2 ea fedc | u(df)Bf dfBf | dfBb gefg |
a2 eg {/g}a2 eg | {/g}a2 ea fedc | fgaf ecBA | EBGB A2 A ||
e | ceAe ceAe | ceag fedc | dfBf dfBf | dfba gfed |
ceAe ceAe | ceag fedc | fgaf ecBA | EBGB A2 A ||
e | aece fece | aece fedc | bfdf gfdf | bfdf agfe |
aece fece | aece fedc | fgaf ecBA | EBGB A2 A2 |]
W:Repeat 2nd part after 3rd part (i.e., ABCB)

